X: 100
T:Trying To Go To Sleep (#296)
M:4/4
L:1/8
S:Capt. F. O'Neill
R:Reel
K:G
cd|efed c2 A2|"tr"BAGA c2 d2|efed c2 A2|"tr"BAGB A2 cd|
efed c2 A2|"tr"BAGA c2 d2|"tr"aged c2 A2|BAGB A2||
cd|efed c2 d2|ef g2 ea a2|efed c2 d2|ea"tr"ag a2 "tr"ag|
efed c2 d2|ef g2 ea a2|"tr"aged c2 d2|eaa"tr"g a2||

